app/dist/common/images/lightpath-technologies.svg

<svg height="18" width="18" xmlns="http://www.w3.org/2000/svg"><path d="m0 0h18v18h-18z" fill="#eeedea"/><g fill="#e4952c"><path d="m13 8.98c0 .55-.44 1.02-1.02 1.02a.99.99 0 0 1 -.98-1.02c0-.54.44-.98.98-.98a1 1 0 0 1 1.02.98z" fill-opacity=".9"/><path d="m16 8.98c0 .55-.44 1.02-1.02 1.02a.99.99 0 0 1 -.98-1.02c0-.54.44-.98.98-.98a1 1 0 0 1 1.02.98z"/><path d="m10 8.98a1 1 0 0 1 -.98 1.02c-.55 0-1.02-.44-1.02-1.02 0-.54.44-.98 1.02-.98a1 1 0 0 1 .98.98z" fill-opacity=".8"/><path d="m7 8.98a1 1 0 0 1 -.98 1.02c-.55 0-1.02-.44-1.02-1.02 0-.54.44-.98 1.02-.98a1 1 0 0 1 .98.98z" fill-opacity=".7"/><path d="m4 8.98a1 1 0 0 1 -.98 1.02c-.55 0-1.02-.44-1.02-1.02 0-.54.44-.98 1.02-.98a1 1 0 0 1 .98.98z" fill-opacity=".6"/></g></svg>

<!-- by TradingView --><svg xmlns="http://www.w3.org/2000/svg" width="18" height="18"><path fill="#EEEDEA" d="M0 0h18v18H0z"/><path d="M13 8.98c0 .55-.44 1.02-1.02 1.02A.99.99 0 0111 8.98c0-.54.44-.98.98-.98a1 1 0 011.02.98z" fill="#E4952C" fill-opacity=".9"/><path d="M16 8.98c0 .55-.44 1.02-1.02 1.02A.99.99 0 0114 8.98c0-.54.44-.98.98-.98a1 1 0 011.02.98z" fill="#E4952C"/><path d="M10 8.98A1 1 0 019.02 10C8.47 10 8 9.56 8 8.98 8 8.44 8.44 8 9.02 8a1 1 0 01.98.98z" fill="#E4952C" fill-opacity=".8"/><path d="M7 8.98A1 1 0 016.02 10C5.47 10 5 9.56 5 8.98 5 8.44 5.44 8 6.02 8a1 1 0 01.98.98z" fill="#E4952C" fill-opacity=".7"/><path d="M4 8.98A1 1 0 013.02 10C2.47 10 2 9.56 2 8.98 2 8.44 2.44 8 3.02 8a1 1 0 01.98.98z" fill="#E4952C" fill-opacity=".6"/></svg>
